assets/img/braze_icons/shield-02.svg

<svg fill="none" height="24" viewBox="0 0 24 24" width="24" xmlns="http://www.w3.org/2000/svg"><path d="m12.5207 1.47269c-.1453-.03918-.319-.07572-.5207-.07572s-.3754.03654-.5207.07572c-.2708.07302-.4982.21823-.6625.33173-.17.11749-.3732.27473-.6027.45225l-.0204.01576c-.91268.70607-1.90023 1.19116-3.21502 1.46461l-.0291.00605c-.64076.13326-1.16141.24154-1.56254.34756-.38972.10301-.79137.23325-1.11737.46342-.21951.15499-.42417.3273-.60573.55051-.18156.2232-.30859.45866-.41563.70513-.15053.34661-.20199.71043-.22548 1.06926-.02285.34904-.02284.77933-.02283 1.28855v3.83258c0 2.8266 1.53729 5.1832 3.19906 6.9144 1.6729 1.7428 3.58694 2.9737 4.59904 3.5642l.041.024c.1847.1085.4244.2492.7415.3173.2595.0556.5793.0556.8388 0 .3171-.0681.5568-.2088.7415-.3173l.041-.024c1.0121-.5905 2.9261-1.8214 4.599-3.5642 1.6618-1.7312 3.1991-4.0878 3.1991-6.9144v-3.83252c0-.5092 0-.93958-.0228-1.28861-.0235-.35883-.075-.72265-.2255-1.06926-.1071-.24647-.2341-.48193-.4156-.70513-.1816-.22321-.3863-.39552-.6058-.55051-.326-.23017-.7276-.36041-1.1173-.46342-.4012-.10602-.9218-.2143-1.5626-.34756l-.0291-.00605c-1.3148-.27345-2.3023-.75854-3.215-1.46461l-.0204-.01578c-.2295-.17751-.4327-.33474-.6027-.45223-.1642-.1135-.3917-.25871-.6625-.33173z" fill="#801ed7"/></svg>

<svg width="24" height="24" viewBox="0 0 24 24" fill="none" xmlns="http://www.w3.org/2000/svg">
<path d="M12.5207 1.47269C12.3754 1.43351 12.2017 1.39697 12 1.39697C11.7983 1.39697 11.6246 1.43351 11.4793 1.47269C11.2085 1.54571 10.9811 1.69092 10.8168 1.80442C10.6468 1.92191 10.4436 2.07915 10.2141 2.25667L10.1937 2.27243C9.28102 2.9785 8.29347 3.46359 6.97868 3.73704L6.94958 3.74309C6.30882 3.87635 5.78817 3.98463 5.38704 4.09065C4.99732 4.19366 4.59567 4.3239 4.26967 4.55407C4.05016 4.70906 3.8455 4.88137 3.66394 5.10458C3.48238 5.32778 3.35535 5.56324 3.24831 5.80971C3.09778 6.15632 3.04632 6.52014 3.02283 6.87897C2.99998 7.22801 2.99999 7.6583 3 8.16752V12.0001C3 14.8267 4.53729 17.1833 6.19906 18.9145C7.87196 20.6573 9.786 21.8882 10.7981 22.4787L10.8391 22.5027C11.0238 22.6112 11.2635 22.7519 11.5806 22.82C11.8401 22.8756 12.1599 22.8756 12.4194 22.82C12.7365 22.7519 12.9762 22.6112 13.1609 22.5027L13.2019 22.4787C14.214 21.8882 16.128 20.6573 17.8009 18.9145C19.4627 17.1833 21 14.8267 21 12.0001V8.16758C21 7.65838 21 7.228 20.9772 6.87897C20.9537 6.52014 20.9022 6.15632 20.7517 5.80971C20.6446 5.56324 20.5176 5.32778 20.3361 5.10458C20.1545 4.88137 19.9498 4.70906 19.7303 4.55407C19.4043 4.3239 19.0027 4.19366 18.613 4.09065C18.2118 3.98463 17.6912 3.87635 17.0504 3.74309L17.0213 3.73704C15.7065 3.46359 14.719 2.9785 13.8063 2.27243L13.7859 2.25665C13.5564 2.07914 13.3532 1.92191 13.1832 1.80442C13.019 1.69092 12.7915 1.54571 12.5207 1.47269Z" fill="#801ED7"/>
</svg>
